!!!!SEGMENT: pl-cz--ii-123--001-001_kottritsch-franciszek--rorate-caeli-rorate-caeli.krn
!!!cenid: 17xx:927
!!!COM: Kottritsch, Franciszek
!!!COM-rismID: pe30040598
!!!CDT: ~1727-1787
!!!CNT:
!!!OPR: Rorate caeli
!!!OTL: Rorate caeli
!!!OMV: 001
!!!PDT:
!!!AGN: Sacred
!!!YEC: Copyright 2022 Narodowy Instytut Fryderyka Chopina (https://polishscores.org)
!!!YEM: License CC-BY-4.0 (https://creativecommons.org/licenses/by/4.0)
!!!SMS-siglum: PL-CZ
!!!SMS-shelfmark: II-123
!!!SMS-shelfwork: 001-001 M
!!!SMS-variant:
!!!SMS-altvar:
!!!NIFC-rismSourceID: 300000619
!!!NIFC-rismChildID: 300000620
!!!NIFC-islandoraID: pl-cz:32159
!!!URL-pdf-islandora: https://repozytorium.nifc.pl/islandora/object/pl-cz%3A32159/datastream/PDF/view
!!!URL-scan: https://polish.musicsources.pl/pl/lokalizacje/galeria/rekopisy/6754/1 @EN{Scan on Polish Music Sources Website} @PL{Skany w portalu Dziedzictwo Muzyki Polskiej w otwartym dostępie}
!!!IIIF:
!!!ONB-nifc: UWAGA: części Rorate caeli: Rorate caeli, Benedixisti Domine. Uwaga: Mittit ad virginem to osobny utwór
!!!AIN: 1 alto 1 empty 1 organ 1 tenor 2 violn 1 vox
!!!key:
**kern	**fba	**kern	**kern	**kern	**text	**kern	**text	**kern	**text	**kern	**text
*part7	*	*part6	*part5	*part4	*	*part3	*	*part2	*	*part1	*
*staff7	*	*staff6	*staff5	*staff4	*	*staff3	*	*staff2	*	*staff1	*
*Iorgan	*	*Ivioln	*Ivioln	*Iempty	*	*Itenor	*	*Ialto	*	*Ivox	*
*I"Organo.	*	*I"Violino Secundo	*I"Violino Primo.	*I"Baſso.	*	*I"Tenore	*	*I"Alto.	*	*I"Canto.	*
*I'org	*	*I'vl 2	*I'vl 1	*I'B	*	*I'T	*	*I'A	*	*I'S	*
*clefF4	*	*clefG2	*clefG2	*clefF4	*	*clefC4	*	*clefC3	*	*clefC1	*
*k[b-]	*	*k[b-]	*k[b-]	*k[b-]	*	*k[b-]	*	*k[b-]	*	*k[b-]	*
*F:	*	*F:	*F:	*F:	*	*F:	*	*F:	*	*F:	*
*M4/4	*	*M4/4	*M4/4	*M4/4	*	*M4/4	*	*M4/4	*	*M4/4	*
!LO:TX:t=P:problem=skany zawierają także głosy ob 1 i ob 2, ale jedynie dla "Zdrowaś bądź Maryja", inne utwory nie są tam oznaczone nawet za pomocą tacet	!	!	!	!LO:TX:t=P:2\:global:problem	!	!LO:TX:t=P:2\:global:problem	!	!LO:TX:t=P:2\:global:problem	!	!	!
!LO:TX:a:t=c	!	!LO:TX:t=P:2\:global:problem	!LO:TX:t=P:2\:global:problem	!LO:TX:b:t=Rorate.	!	!LO:TX:a:t=Intonatio.	!	!LO:TX:a:t=c	!	!LO:TX:t=P:2\:global:problem	!
!LO:TX:a:t=Intonatio.	!	!LO:TX:a:t=Rorate Intonat:	!LO:TX:a:t=Rorate Intonat	!LO:TX:a:t=c	!	!LO:TX:b:t=Rorate	!	!LO:TX:t=P:problem=wysokości poprawiane	!	!LO:TX:b:t=Rorate Intonat	!
0C/	.	0ryy	0ryy	0C/	.	0C/	.	0C/	.	0ryy	.
!LO:TX:a:t=d	!	!	!	!LO:TX:a:t=d	!	!	!	!LO:TX:a:t=d	!	!	!
0D\	.	0ryy	0ryy	0D\	.	0D/	.	0D/	.	0ryy	.
0A\	.	0ryy	0ryy	0A\	.	0A\	.	0A/	.	0ryy	.
0c\	.	0ryy	0ryy	0c\	.	0c\	.	0c\	.	0ryy	.
0ryy	.	0ryy	0ryy	0A\	.	0A\	.	0A/	.	0ryy	.
=1||	=1||	=1||	=1||	=1||	=1||	=1||	=1||	=1||	=1||	=1||	=1||
*k[b-]	*	*k[b-]	*k[b-]	*k[b-]	*	*k[b-]	*	*k[b-]	*	*k[b-]	*
*M2/2	*	*M2/2	*M2/2	*M2/2	*	*M2/2	*	*M2/2	*	*M2/2	*
*met(c|)	*	*met(c|)	*met(c|)	*met(c|)	*	*met(c|)	*	*met(c|)	*	*met(c|)	*
!	!	!	!	!	!	!	!	!	!	!LO:TX:a:t=3	!
!LO:TX:t=P:2\:global:problem	!	!LO:TX:a:t=allabre:	!LO:TX:a:t=2	!	!	!	!	!LO:TX:b:t=Rorate:	!	!LO:TX:b:t=Rorate	!
!LO:TX:a:t=allab&colon;	!	!LO:TX:b:t=Rorate	!LO:TX:a:t=allabre:	!LO:TX:a:t=allabr:	!	!LO:TX:b:t=Rorate:	!	!LO:TX:a:t=allabr:	!	!LO:TX:a:t=allabr:	!
!LO:TX:t=P:problem=klucz po kresce	!	!LO:TX:t=P:problem=klucz po kresce	!LO:TX:t=P:problem=klucz po kresce	!LO:TX:t=P:problem=klucz po kresce	!	!LO:TX:a:t=allabr:	!	!LO:TX:t=P:problem=klucz po kresce	!	!LO:TX:t=P:problem=klucz po kresce	!
4r	.	1r	0r	4r	.	1r	.	0r	.	1r	.
4F\	.	.	.	4F\	Ro-	.	.	.	.	.	.
4F\	.	.	.	4F\	-ra-	.	.	.	.	.	.
4F\	.	.	.	4F\	-te	.	.	.	.	.	.
=2	=2	=2	=2	=2	=2	=2	=2	=2	=2	=2	=2
*2\right	*	*	*	*2\right	*	*	*	*	*	*	*
!	!	!	!	!LO:TX:t=P:problem=nad ligaturą "ae" diereza	!	!	!	!	!	!	!
2E\	6	4r	.	2E\	Cae-	4r	.	.	.	1r	.
.	.	4cc\	.	.	.	4c\	Ro-	.	.	.	.
2C\	.	4cc\	.	2C\	-li	4c\	-ra-	.	.	.	.
.	.	4cc\	.	.	.	4c\	-te	.	.	.	.
=3	=3	=3	=3	=3	=3	=3	=3	=3	=3	=3	=3
!	!	!	!	!LO:TX:t=P:problem=nad ligaturą "ae" diereza	!	!LO:TX:t=P:problem=nad ligaturą "ae" diereza	!	!	!	!	!
4F\	.	2a/	4r	(4F\	Cae-	2A/	Cae-	4r	.	1r	.
4G\	.	.	4ff\	4G\	.	.	.	4f\	Ro-	.	.
4A\	6	2f/	4ff\	4A\	.	2F/	-li	4f\	-ra-	.	.
4B-\	.	.	4ff\	4B-\)	.	.	.	4f\	-te	.	.
=4	=4	=4	=4	=4	=4	=4	=4	=4	=4	=4	=4
*	*	*	*2\right	*	*	*	*	*2\right	*	*	*
!	!	!	!	!	!	!	!	!LO:TX:t=P:problem=nad ligaturą "ae" diereza	!	!	!
4c\	.	4.g/	2ee\	(4c\	-li	4.G/	de-	2e\	Cae-	4r	.
4G\	6 4	.	.	4G\)	.	.	.	.	.	4cc\	Ro-
.	.	8g/	.	.	.	8G/	-su-	.	.	.	.
!	!	!	!	!	!	!LO:TX:t=P:problem=kreski oddzielające słowa zawsze na 1. linii	!	!	!	!	!
4c\	.	4g/	2cc\	4c\	de-	4G,/	-per	2c\	-li	4cc\	-ra-
4B-\	.	4g/	.	4B-\	.	4G/	et	.	.	4cc\	-te
=5	=5	=5	=5	=5	=5	=5	=5	=5	=5	=5	=5
!	!	!	!	!	!	!	!	!LO:TX:t=P:problem=nad ligaturą "ae" diereza	!	!LO:TX:t=P:problem=nad ligaturą "oe" diereza	!
4A\	6	4cc\	4ff\	(4A\	.	(4c\	nu-	(4f\	Cae-	(4cc\	Coe-
4G\	6	4b-\	4gg\	4G\	.	4B-\)	.	4g\)	.	4ff\)	.
*	*	*	*	*	*	*	*	*	*	*2\right	*
[<2F\	.	4a\	2aa\	2F\)	.	(4A\	-bes	2a\	-li	2ff\	-li
.	.	4cc\	.	.	.	4c\)	.	.	.	.	.
!LO:LB:g=original	!	!	!	!LO:LB:g=original	!	!LO:LB:g=original	!	!	!	!	!
=6	=6	=6	=6	=6	=6	=6	=6	=6	=6	=6	=6
*	*	*	*	*	*	*2\right	*	*	*	*	*
4F\]	4 2	4b-X\	4gg\	(4F\	.	(2.B-\	plu-	2.g\	de-	(4dd\	de-
8E\L	.	4b-\	4ccc\	8E\L	.	.	.	.	.	8ee\L)	.
8D\J	.	.	.	8D\J)	.	.	.	.	.	8ff\J	.
4E\	5-	4gg\	4ccc\	4.E\	.	.	.	.	.	2gg\	-su-
4C\	7	4ee\	4ccc\	.	.	4c\)	.	4g\	-su-	.	.
.	.	.	.	8E\	-su-	.	.	.	.	.	.
=7	=7	=7	=7	=7	=7	=7	=7	=7	=7	=7	=7
!	!	!	!	!	!	!	!	!	!	!LO:TX:t=P:problem=kreski dzielące wyrazy zawsze na 1. linii	!
4FF/	.	4cc\	4aa\	4F\	-per	4A\	-ant	4f\	-per	4ff,\	-per
4F\	.	4cc\	4aa\	4F\	et	4c\	et	4a\	et	4cc\	et
4F\	.	4cc\	4aa\	4F\	nu-	4c\	nu-	4a\	nu-	4a\	nu-
4E\	.	4cc#X\	4gg\	4E\	-bes	4c#X\	-bes	4g\	-bes	4ee\	-bes
!	!	!	!	!	!	!	!	!LO:LB:g=original	!	!	!
=8	=8	=8	=8	=8	=8	=8	=8	=8	=8	=8	=8
4D\	.	4dd\	4ff\	(4D\	plu-	4d\	plu-	4f\	plu-	4ff\	plu-
!	!	!	!	!	!	!	!	!LO:TX:t=P:kreska:problem=4 pole	!	!	!
!	!	!	!	!	!	!	!	!LO:TX:t=P:problem=kreski oddzielające wyrazy (?) na różnych wysokościach, oznaczam w notatce	!	!	!
4E\	.	8cc#X\L	4gg\	4E\)	.	8c#X\L	.	4g,\	.	4ee\	.
.	.	8bn\J	.	.	.	8Bn\J	.	.	.	.	.
!	!	!LO:LB:g=original	!	!	!	!	!	!	!	!	!
4F\	.	4a/	4aa\	(4F\	-ant	4A/	.	4a\	.	2dd\	-ant
4G\	.	4bn/	8gg\L	4G\)	.	4Bn\	.	(8g\L	.	.	.
.	.	.	8ff\J	.	.	.	.	8f\J)	.	.	.
!	!	!	!	!	!	!	!	!	!	!LO:LB:g=original	!
=9	=9	=9	=9	=9	=9	=9	=9	=9	=9	=9	=9
!	!	!	!	!	!	!	!	!LO:TX:t=P:kreska:problem=3 pole	!	!	!
4A\	.	4cc#X\	4ee\	4A\	nu-	2c#X\	-ant	2e,\	-ant	4cc#X\	plu-
4A\	#	4cc#\	4ee\	4A\	-bes	.	.	.	.	4a\	-ant
4F\	6	4dd\	4aa\	4F\	plu-	4f\	nu-	4a\	nu-	4dd\	nu-
4D\	.	4dd\	4aa\	4D\	-a(n)t	4f\	-bes	4a\	-bes	4dd\	-bes
!	!	!	!LO:LB:g=original	!	!	!	!	!	!	!	!
=10	=10	=10	=10	=10	=10	=10	=10	=10	=10	=10	=10
*	*	*	*	*	*ij	*	*	*	*	*	*
4B-X\	.	4dd\	4ff\	4B-\	plu-	4d\	plu-	4f\	plu-	4dd\	plu-
!	!	!	!	!	!	!	!	!LO:TX:t=P:kreska:problem=4 pole	!	!	!
4G\	.	4gg\	4bb-\	4G\	-a(n)t	4e\	-ant	4g,\	-a(n)t	4b-X\	-ant
*	*	*	*	*	*Xij	*	*	*	*	*	*
4A\	.	4cc#X\	4aa\	(4A\	ju-	2c#X\	Juſ-	2e\	juſ-	2a\	juſ-
4AA/	.	4ee\	4gg\	4AA/)	.	.	.	.	.	.	.
=11	=11	=11	=11	=11	=11	=11	=11	=11	=11	=11	=11
!	!	!	!	!	!	!	!	!LO:TX:t=P:kreska:problem=3 pole	!	!	!
4D/	.	4a/	4ff\	4D/	-stum	4d\	-tum	4d,\	-tum,	4a\	-tum
4r	.	4r	4dd\	4r	.	4r	.	4d\	a-	4r	.
2r	.	4r	4aa\	2r	.	4r	.	4a\	-pe-	2r	.
.	.	4a/	4aa\	.	.	4A\	a-	4a\	-ri-	.	.
=12	=12	=12	=12	=12	=12	=12	=12	=12	=12	=12	=12
2r	.	4dd\	4ff\	2r	.	4d\	-pe-	4f\	-a-	1r	.
!	!	!	!	!	!	!	!	!LO:TX:t=P:kreska:problem=4 pole	!	!	!
.	.	4dd\	4ff\	.	.	4d\	-ri-	4f\	-tur	.	.
4r	.	4dd\	4ff\	4r	.	4d\	-a-	2f\	ter-	.	.
4D/	.	4dd\	4ff\	4D/	a-	4d\	-tur	.	.	.	.
=13	=13	=13	=13	=13	=13	=13	=13	=13	=13	=13	=13
4A\	4	4dd\	4ee\	4A\	-pe-	4d\	ter-	4e\	-ra	2r	.
4A\	8	8cc\L	4ee\	4A\	-ri-	(8c\L	.	4e\	a-	.	.
.	.	8b-X\J	.	.	.	8B-X\J)	.	.	.	.	.
*	*	*2\right	*	*	*	*	*	*	*	*	*
4A\	.	[2cc\	4ee\	4A\	-a-	[2c\	.	4e\	-pe-	4r	.
4G\	2	.	4ee\	4G\	-tur	.	.	4e\	-ri-	4a\	a-
!	!	!	!	!LO:LB:g=original	!	!LO:LB:g=original	!	!	!	!	!
=14	=14	=14	=14	=14	=14	=14	=14	=14	=14	=14	=14
!	!	!	!	!LO:TX:a:t=|	!	!	!	!	!	!	!
2F#X\	6 5	4cc\]	4dd\	(2F#X\	ter-	4c\]	.	2.d\	-a-	4dd\	-pe-
.	.	8b-X\L	4dd\	.	.	(8B-X\L	.	.	.	4dd\	-ri-
.	.	8a\J	.	.	.	8A\J)	.	.	.	.	.
2G\	5	2b-X\	4dd\	2G\)	.	2B-X\	.	.	.	4dd\	-a-
.	6	.	4ee\	.	.	.	.	4e\	-tur	4b-X\	-tur
!LO:LB:g=original	!	!	!	!	!	!	!	!	!	!	!
=15	=15	=15	=15	=15	=15	=15	=15	=15	=15	=15	=15
4D/	.	4a/	4ff\	(4D/	.	(2.A/	.	4f\	ter-	(4a\	ter-
4C/	6	4aa\	4ee\	4C/	.	.	.	(4e\	.	4ee\	.
2BB-/	7	4aa\	4dd\	2BB-/)	.	.	.	4d\)	.	4ff\	.
.	6	4gg\	4ee\	.	.	4G/)	.	4e\	.	4dd\)	.
!	!	!	!	!	!	!	!	!LO:LB:g=original	!	!	!
=16	=16	=16	=16	=16	=16	=16	=16	=16	=16	=16	=16
!	!	!	!	!LO:TX:t=P:problem=kreska na 1. linii	!	!	!	!	!	!	!
2AA/	.	2ee\	2cc#X\	2AA,/	-ra	2A/	-ra	2c#X/	-ra	2ee\	-ra!
2F\	.	2ff\	2aa\	2F\	et	(4c\	et	2a\	et	2ff\	et
.	.	.	.	.	.	4d\)	.	.	.	.	.
!	!	!	!	!	!	!	!	!	!	!LO:LB:g=original	!
=17	=17	=17	=17	=17	=17	=17	=17	=17	=17	=17	=17
2.c\	.	2.ee\	2.gg\	2.c\	ger-	2.e\	ger-	2.g\	ger-	2.ee\	ger-
4c\	.	4ee\	4gg\	4c\	-mi-	4e\	-mi-	4g\	-mi-	4cc\	-mi-
!	!	!LO:LB:g=original	!	!	!	!	!	!	!	!	!
=18	=18	=18	=18	=18	=18	=18	=18	=18	=18	=18	=18
2c\	.	4ee\	4gg\	2c\	-net	2e,\	-net	(2g\	-net	2ee,\	-net
.	.	4cc\	4ee\	.	.	.	.	.	.	.	.
2A\	6	4ff\	4aa\	(2A\	Sal-	2c\	Sal-	2a\)	Sal-	2ff\	Sal-
.	.	4aa\	4ff\	.	.	.	.	.	.	.	.
=19	=19	=19	=19	=19	=19	=19	=19	=19	=19	=19	=19
2B-X\	.	4dd\	4ff\	2B-X\)	.	(2d\	.	(4f\	.	1ff\	-va-
.	.	4ee\	4gg\	.	.	.	.	4g\)	.	.	.
2A\	6	4ff\	4aa\	2A\	-va-	2c\)	-va-	2a\	-va-	.	.
.	.	4aa\	4ff\	.	.	.	.	.	.	.	.
=20	=20	=20	=20	=20	=20	=20	=20	=20	=20	=20	=20
2G\	7	4dd\	4bb-\	(2G\	-to-	(2d\	-to-	1b-X\	-to-	(2ff\	-to-
.	.	8cc\L	4aa\	.	.	.	.	.	.	.	.
.	.	8dd\J	.	.	.	.	.	.	.	.	.
2C/	7	4.ee\	4bb-\	2C\)	.	2e\)	.	.	.	2ee\)	.
.	.	.	4ccc\	.	.	.	.	.	.	.	.
.	.	8ee\	.	.	.	.	.	.	.	.	.
=21	=21	=21	=21	=21	=21	=21	=21	=21	=21	=21	=21
!	!	!	!	!	!	!	!	!LO:TX:t=P:kreska:problem=2 linia	!	!	!
2FF/	.	4ff\	4aa\	2F\	-rem	2f,\	-rem	2a\	-rem	2cc,\	-rem
.	.	4a/	4cc\	.	.	.	.	.	.	.	.
[2BB-/	.	2dd\	2ff\	(2BB-/	Sal-	2d\	Sal-	(2f\	Sal-	2b-X\	Sal-
!	!	!	!LO:LB:g=original	!	!	!	!	!	!	!	!
=22	=22	=22	=22	=22	=22	=22	=22	=22	=22	=22	=22
2BB-/]	4 2	4g/	4ee\	2BB-/)	.	(2e\	.	(2g\)	.	(2.cc\	.
.	.	4ee\	4gg\	.	.	.	.	.	.	.	.
4AA/	6	4ff\	4aa\	(4AA/	-va-	[2f\)	-va-	2a\)	-va-	.	.
4BB-/	.	4a/	4ff\	4BB-/)	.	.	.	.	.	4dd\)	-va-
!	!	!	!	!LO:LB:g=original	!	!LO:LB:g=original	!	!	!	!	!
=23	=23	=23	=23	=23	=23	=23	=23	=23	=23	=23	=23
2C/	4	4g/	4ff\	1C/	-to-	(4f\]	-to-	1g\	-to-	1cc\	-to-
.	.	4cc\	8ee\L	.	.	8e\L)	.	.	.	.	.
.	.	.	8dd\J	.	.	8d\J	.	.	.	.	.
2CC/	3	4.cc\	4.ee\	.	.	2e\	.	.	.	.	.
.	.	8b-X\	8ee\	.	.	.	.	.	.	.	.
=24	=24	=24	=24	=24	=24	=24	=24	=24	=24	=24	=24
1FF/	.	1a/;	1ff\;	1FF/;	-rem.	1f\	-rem.	1f\	-rem.	1a\;<	-rem.
!LO:LB:g=original	!	!	!	!	!	!	!	!LO:LB:g=original	!	!	!
=25||;;	=25||	=25||	=25||	=25||	=25||	=25||	=25||	=25||	=25||	=25||	=25||
*	*	*clefG2	*clefG2	*clefF4	*	*clefC4	*	*clefC3	*	*clefC1	*
*M3/4	*	*M3/4	*M3/4	*M3/4	*	*M3/4	*	*M3/4	*	*M3/4	*
*	*	*k[b-]	*k[b-]	*k[b-]	*	*k[b-]	*	*k[b-]	*	*k[b-]	*
!LO:TX:b:t=Benedixisti	!	!LO:TX:b:t=Benedixisti	!LO:TX:b:t=Benedixisti	!	!	!	!	!	!	!	!
4F\	.	8cc\L	8aa\L	4F\	Be-	4c\	Be-	4a\	Be-	4ff\	Be-
.	.	8cc\	8aa\	.	.	.	.	.	.	.	.
4E\	6	8cc\	8gg\	4E\	-ne-	4c\	-ne-	4g\	-ne-	4cc\	-ne-
.	.	8cc\	8gg\	.	.	.	.	.	.	.	.
4F\	.	8cc\	8aa\	4F\	-di-	4c\	-di-	4a\	-di-	4ff\	-di-
.	.	8cc\J	8aa\J	.	.	.	.	.	.	.	.
!	!	!	!	!	!	!	!	!	!	!LO:LB:g=original	!
=26	=26	=26	=26	=26	=26	=26	=26	=26	=26	=26	=26
2E\	6	4cc\	4gg\	2E\	-xiſ-	2c\	-xiſ-	2g\	-xiſ-	2cc\	-xis-
.	.	4ee\	4cc\	.	.	.	.	.	.	.	.
4C\	.	4ee\	4ccc\	4C\	-ti	4c\	-ti	4g\	-ti	4ee\	-ti
=27	=27	=27	=27	=27	=27	=27	=27	=27	=27	=27	=27
4.F\	.	8aa\L	8ccc\L	4.F\	Do-	4.c\	Do-	4.a\	Do-	4.ff\	Do-
.	.	8gg\	8bb-\	.	.	.	.	.	.	.	.
.	.	8ff\	8aa\	.	.	.	.	.	.	.	.
8G\	.	8ee\	8gg\	8G\	-mi-	8B-X\	-mi-	8g\	-mi-	8ee\	-mi-
4A\	6	8dd\	8ff\	4A\	-ne	4c\	-ne	4f\	-ne	4ff\	-ne
.	.	8cc\J	8ee\J	.	.	.	.	.	.	.	.
!	!	!LO:LB:g=original	!	!	!	!	!	!	!	!	!
=28	=28	=28	=28	=28	=28	=28	=28	=28	=28	=28	=28
4B-\	.	4b-\	4dd\	4B-\	ter-	2d\	ter-	2f\	ter-	(4dd\	ter-
4G\	.	4dd\	4bb-\	4G\	.	.	.	.	.	4gg\)	.
4c\	.	4ee\	4gg\	4c\	-ram	4G/	-ram	4e\	-ram	4ee\	-ram
=29	=29	=29	=29	=29	=29	=29	=29	=29	=29	=29	=29
2F\	.	2ff\	2aa\	2F\	tu-	2A/	tu-	2f\	tu-	2cc\	tu-
4F\	.	4ff\	4aa\	4F\	-am,	4A/	-am	4f\	-am.	4cc\	-am
=30	=30	=30	=30	=30	=30	=30	=30	=30	=30	=30	=30
4r	.	4r	4r	4r	.	4r	.	4r	.	4r	.
4F\	.	4cc\	4aa\	4F\	a-	4c\	a-	4a\	a-	4cc\	a-
4E\	6\	4cc#X\	4gg\	4E\	-ver-	4c#X\	-ver-	4g\	-ver-	4ee\	-ver-
!	!	!	!	!LO:LB:g=original	!	!LO:LB:g=original	!	!	!	!	!
=31	=31	=31	=31	=31	=31	=31	=31	=31	=31	=31	=31
2D/	.	4dd\	4ff\	2D/	-tiſ-	2A/	-tiſ-	2f\	-tiſ-	2a\	-tiſ-
.	.	4ff\	4aa\	.	.	.	.	.	.	.	.
4C#X/	6	4ee\	4aa\	4C#X/	-ti	4A/	-ti	4e\	-ti	4cc#X\	-ti
!	!	!	!LO:LB:g=original	!	!	!	!	!	!	!	!
=32	=32	=32	=32	=32	=32	=32	=32	=32	=32	=32	=32
4D/	5	4dd\	4ff\	4D/	Cap-	(8A\L	cap-	4f\	Cap-	4ff\	Cap-
.	6	.	.	.	.	8B-X\J)	.	.	.	.	.
4A\	n	4ccn\	4ff\	4A\	-ti-	4c\	-ti-	4f\	-ti-	4cc\	-ti-
4A\	6 _	4cc\	4ff\	4A\	-vi-	4c\	-vi-	4f\	-vi-	4ff\	-vi-
!	!	!	!	!	!	!	!	!LO:LB:g=original	!	!	!
=33	=33	=33	=33	=33	=33	=33	=33	=33	=33	=33	=33
4B-X\	x	4dd\	4ff\	(4B-\	-ta-	(4d\	-ta-	(4f\	-ta-	(4dd\	-ta-
4G\	6	4ee\	4bb-\	4G\)	.	4e\)	.	4b-X\)	.	4g\)	.
4F\	.	4ff\	4aa\	4F\	-tem	4f\	-tem	4a\	-tem	4cc\	-tem
=34	=34	=34	=34	=34	=34	=34	=34	=34	=34	=34	=34
2c\	.	2ee\	2gg\	2c\	Ja-	2e\	Ja-	2g\	Ja-	2cc\	Ja-
4C/	.	4ee\	4gg\	4C/	-cob,	4e\	-cob	4g\	-cob	4cc\	-cob
!LO:LB:g=original	!	!	!	!	!	!	!	!	!	!LO:LB:g=original	!
=35	=35	=35	=35	=35	=35	=35	=35	=35	=35	=35	=35
4c\	.	4ee\	4gg\	4c\	Cap-	4G/	cap-	4e\	cap-	4cc\	Cap-
4c\	.	4cc\	4ee\	4c\	-ti-	4G/	-ti-	4e\	-ti-	4cc\	-ti-
4c\	.	4ee\	4gg\	4c\	-vi-	4G/	-vi-	4e\	-vi-	4cc\	-vi-
=36	=36	=36	=36	=36	=36	=36	=36	=36	=36	=36	=36
4A\	.	4cc\	4ff\	(4A\	-ta-	(4A\	-ta-	(4f\	-ta-	(4cc\	-ta-
4G\	6	4ee\	4bb-\	4G\)	.	4B-\)	.	4g\)	.	4b-X\)	.
4F\	.	4ff\	4aa\	4F\	-tem	4c\	-tem	4a\	-tem	4a\	-tem
=37	=37	=37	=37	=37	=37	=37	=37	=37	=37	=37	=37
4B-\	6 5	4ff\	4gg\	(4B-\	Ja-	(4d\	Ja-	(2f\	Ja-	(4g/	Ja-
4c\	4	4.ee\	4.gg\	4c\	.	2G/)	.	.	.	2cc\)	.
4C/	5	.	.	4C/)	.	.	.	4e\)	.	.	.
.	.	8ff\	8ff\	.	.	.	.	.	.	.	.
=38	=38	=38	=38	=38	=38	=38	=38	=38	=38	=38	=38
!LO:TX:a:t=Rorate, ut supra	!	!LO:TX:a:t=Rorate ut Supra	!LO:TX:a:t=Rorate, ut supra	!LO:TX:a:t=Rorate ut Supra	!	!LO:TX:a:t=Rorate ut Supra	!	!LO:TX:a:t=Rorate ut supra	!	!LO:TX:a:t=Rorate, ut supra	!
2.FF;/	.	2.ff\	2.ff\	2.FF;/	-cob.	2.A/	-cob.	2.f\	-cob	2.cc\	-cob.
==	==	==	==	==	==	==	==	==	==	==	==
*-	*-	*-	*-	*-	*-	*-	*-	*-	*-	*-	*-
!!!system-decoration: [(s1,s2,s3,s4)][(s5,s6)]s7
!!!RDF**kern: > = above
!!!RDF**kern: < = below
!!!ENC: Kamil Watkowski
!!!END: 2020-08-12
!!!ENC: Leszek Kubiak
!!!END: 2022-02-05
